app/assets/images/icons/active/comment--line.svg

<?xml version="1.0" encoding="UTF-8" standalone="no"?>
<svg width="32px" height="232px" viewBox="0 0 32 232" version="1.1" xmlns="http://www.w3.org/2000/svg" xmlns:xlink="http://www.w3.org/1999/xlink" xmlns:sketch="http://www.bohemiancoding.com/sketch/ns">
    <title>comment-line</title>
    <description>Created with Sketch (http://www.bohemiancoding.com/sketch)</description>
    <defs></defs>
    <g id="Categories" stroke="none" stroke-width="1" fill="none" fill-rule="evenodd" sketch:type="MSPage">
        <path d="M11.2390354,149.025195 L11.2390354,142.703195 C6.58285749,141.219195 3.5,137.677195 3.5,133.731195 C3.5,128.382195 9.10381485,124.025195 15.9934192,124.025195 C22.8880857,124.025195 28.5,128.382195 28.5,133.731195 C28.5,136.641195 26.8608715,139.354195 23.9936622,141.200195 L23.9460778,141.266195 L23.7486535,141.350195 C21.8817276,142.505195 19.6280525,143.206195 17.2154254,143.395195 L11.2390354,149.025195 L11.2390354,149.025195 L11.2390354,149.025195 L11.2390354,149.025195 Z M15.9934192,125.702195 C10.0393026,125.702195 5.19481229,129.305195 5.19481229,133.731195 C5.19481229,137.087195 8.05392216,140.116195 12.3112016,141.274195 L12.9358725,141.442195 L12.9358725,145.112195 L16.4915361,141.762195 L16.8023529,141.743195 C19.0347669,141.614195 21.1122788,140.993195 22.8172154,139.952195 L22.9579435,139.866195 C25.4060058,138.331195 26.8031628,136.098195 26.8031628,133.731195 C26.8031628,129.305195 21.9525979,125.702195 15.9934192,125.702195 L15.9934192,125.702195 Z M15.9934192,125.702195" id="comment-line--lp-blue" fill="#206FAC" sketch:type="MSShapeGroup"></path>
        <path d="M11.2390354,109.025195 L11.2390354,102.703195 C6.58285749,101.219195 3.5,97.6771953 3.5,93.7311953 C3.5,88.3821953 9.10381485,84.0251953 15.9934192,84.0251953 C22.8880857,84.0251953 28.5,88.3821953 28.5,93.7311953 C28.5,96.6411953 26.8608715,99.3541953 23.9936622,101.200195 L23.9460778,101.266195 L23.7486535,101.350195 C21.8817276,102.505195 19.6280525,103.206195 17.2154254,103.395195 L11.2390354,109.025195 L11.2390354,109.025195 L11.2390354,109.025195 L11.2390354,109.025195 Z M15.9934192,85.7021953 C10.0393026,85.7021953 5.19481229,89.3051953 5.19481229,93.7311953 C5.19481229,97.0871953 8.05392216,100.116195 12.3112016,101.274195 L12.9358725,101.442195 L12.9358725,105.112195 L16.4915361,101.762195 L16.8023529,101.743195 C19.0347669,101.614195 21.1122788,100.993195 22.8172154,99.9521953 L22.9579435,99.8661953 C25.4060058,98.3311953 26.8031628,96.0981953 26.8031628,93.7311953 C26.8031628,89.3051953 21.9525979,85.7021953 15.9934192,85.7021953 L15.9934192,85.7021953 Z M15.9934192,85.7021953" id="comment-line--white" fill="#FFFFFF" sketch:type="MSShapeGroup"></path>
        <path d="M11.2390354,69.0251953 L11.2390354,62.7031953 C6.58285749,61.2191953 3.5,57.6771953 3.5,53.7311953 C3.5,48.3821953 9.10381485,44.0251953 15.9934192,44.0251953 C22.8880857,44.0251953 28.5,48.3821953 28.5,53.7311953 C28.5,56.6411953 26.8608715,59.3541953 23.9936622,61.2001953 L23.9460778,61.2661953 L23.7486535,61.3501953 C21.8817276,62.5051953 19.6280525,63.2061953 17.2154254,63.3951953 L11.2390354,69.0251953 L11.2390354,69.0251953 L11.2390354,69.0251953 L11.2390354,69.0251953 Z M15.9934192,45.7021953 C10.0393026,45.7021953 5.19481229,49.3051953 5.19481229,53.7311953 C5.19481229,57.0871953 8.05392216,60.1161953 12.3112016,61.2741953 L12.9358725,61.4421953 L12.9358725,65.1121953 L16.4915361,61.7621953 L16.8023529,61.7431953 C19.0347669,61.6141953 21.1122788,60.9931953 22.8172154,59.9521953 L22.9579435,59.8661953 C25.4060058,58.3311953 26.8031628,56.0981953 26.8031628,53.7311953 C26.8031628,49.3051953 21.9525979,45.7021953 15.9934192,45.7021953 L15.9934192,45.7021953 Z M15.9934192,45.7021953" id="comment-line--body-grey" fill="#67737B" sketch:type="MSShapeGroup"></path>
        <path d="M11.2390354,29.0251953 L11.2390354,22.7031953 C6.58285749,21.2191953 3.5,17.6771953 3.5,13.7311953 C3.5,8.38219531 9.10381485,4.02519531 15.9934192,4.02519531 C22.8880857,4.02519531 28.5,8.38219531 28.5,13.7311953 C28.5,16.6411953 26.8608715,19.3541953 23.9936622,21.2001953 L23.9460778,21.2661953 L23.7486535,21.3501953 C21.8817276,22.5051953 19.6280525,23.2061953 17.2154254,23.3951953 L11.2390354,29.0251953 L11.2390354,29.0251953 L11.2390354,29.0251953 L11.2390354,29.0251953 Z M15.9934192,5.70219531 C10.0393026,5.70219531 5.19481229,9.30519531 5.19481229,13.7311953 C5.19481229,17.0871953 8.05392216,20.1161953 12.3112016,21.2741953 L12.9358725,21.4421953 L12.9358725,25.1121953 L16.4915361,21.7621953 L16.8023529,21.7431953 C19.0347669,21.6141953 21.1122788,20.9931953 22.8172154,19.9521953 L22.9579435,19.8661953 C25.4060058,18.3311953 26.8031628,16.0981953 26.8031628,13.7311953 C26.8031628,9.30519531 21.9525979,5.70219531 15.9934192,5.70219531 L15.9934192,5.70219531 Z M15.9934192,5.70219531" id="comment-line--title-grey" fill="#3A434E" sketch:type="MSShapeGroup"></path>
    </g>
</svg>

<svg width="32" height="232" viewBox="0 0 32 232" xmlns="http://www.w3.org/2000/svg" xmlns:sketch="http://www.bohemiancoding.com/sketch/ns"><title>comment-line</title><g sketch:type="MSPage" fill="none"><path d="M11.239 149.025v-6.322c-4.656-1.484-7.739-5.026-7.739-8.972 0-5.349 5.604-9.706 12.493-9.706 6.895 0 12.507 4.357 12.507 9.706 0 2.91-1.639 5.623-4.506 7.469l-.048.066-.197.084c-1.867 1.155-4.121 1.856-6.533 2.045l-5.976 5.63zm4.754-23.323c-5.954 0-10.799 3.603-10.799 8.029 0 3.356 2.859 6.385 7.116 7.543l.625.168v3.67l3.556-3.35.311-.019c2.232-.129 4.31-.75 6.015-1.791l.141-.086c2.448-1.535 3.845-3.768 3.845-6.135 0-4.426-4.851-8.029-10.81-8.029zm0 0" fill="#206FAC" sketch:type="MSShapeGroup"/><path d="M11.239 109.025v-6.322c-4.656-1.484-7.739-5.026-7.739-8.972 0-5.349 5.604-9.706 12.493-9.706 6.895 0 12.507 4.357 12.507 9.706 0 2.91-1.639 5.623-4.506 7.469l-.048.066-.197.084c-1.867 1.155-4.121 1.856-6.533 2.045l-5.976 5.63zm4.754-23.323c-5.954 0-10.799 3.603-10.799 8.029 0 3.356 2.859 6.385 7.116 7.543l.625.168v3.67l3.556-3.35.311-.019c2.232-.129 4.31-.75 6.015-1.791l.141-.086c2.448-1.535 3.845-3.768 3.845-6.135 0-4.426-4.851-8.029-10.81-8.029zm0 0" fill="#fff" sketch:type="MSShapeGroup"/><path d="M11.239 69.025v-6.322c-4.656-1.484-7.739-5.026-7.739-8.972 0-5.349 5.604-9.706 12.493-9.706 6.895 0 12.507 4.357 12.507 9.706 0 2.91-1.639 5.623-4.506 7.469l-.048.066-.197.084c-1.867 1.155-4.121 1.856-6.533 2.045l-5.976 5.63zm4.754-23.323c-5.954 0-10.799 3.603-10.799 8.029 0 3.356 2.859 6.385 7.116 7.543l.625.168v3.67l3.556-3.35.311-.019c2.232-.129 4.31-.75 6.015-1.791l.141-.086c2.448-1.535 3.845-3.768 3.845-6.135 0-4.426-4.851-8.029-10.81-8.029zm0 0" fill="#67737B" sketch:type="MSShapeGroup"/><path d="M11.239 29.025v-6.322c-4.656-1.484-7.739-5.026-7.739-8.972 0-5.349 5.604-9.706 12.493-9.706 6.895 0 12.507 4.357 12.507 9.706 0 2.91-1.639 5.623-4.506 7.469l-.048.066-.197.084c-1.867 1.155-4.121 1.856-6.533 2.045l-5.976 5.63zm4.754-23.323c-5.954 0-10.799 3.603-10.799 8.029 0 3.356 2.859 6.385 7.116 7.543l.625.168v3.67l3.556-3.35.311-.019c2.232-.129 4.31-.75 6.015-1.791l.141-.086c2.448-1.535 3.845-3.768 3.845-6.135 0-4.426-4.851-8.029-10.81-8.029zm0 0" fill="#3A434E" sketch:type="MSShapeGroup"/></g></svg>
